dist/images/edit.svg

<?xml version="1.0" encoding="UTF-8"?>
<svg width="18px" height="16px" viewBox="0 0 18 16" version="1.1" xmlns="http://www.w3.org/2000/svg" xmlns:xlink="http://www.w3.org/1999/xlink">
    <title></title>
    <g id="Mobile" stroke="none" stroke-width="1" fill="none" fill-rule="evenodd">
        <g id="Mobile-Products" transform="translate(-1463.000000, -1628.000000)" fill="#53C999" fill-rule="nonzero">
            <path d="M1478.70858,1633.38674 C1478.7867,1633.38674 1478.85506,1633.35744 1478.91366,1633.29885 L1478.91366,1633.29885 L1479.96834,1632.24416 C1480.18318,1632.02932 1480.29061,1631.76565 1480.29061,1631.45315 C1480.29061,1631.14065 1480.18318,1630.86721 1479.96834,1630.63284 L1479.96834,1630.63284 L1478.5328,1629.1973 C1478.29842,1628.98245 1478.02499,1628.87503 1477.71249,1628.87503 C1477.39999,1628.87503 1477.13632,1628.98245 1476.92147,1629.1973 L1476.92147,1629.1973 L1475.86679,1630.25198 C1475.8082,1630.31057 1475.7789,1630.37893 1475.7789,1630.45706 C1475.7789,1630.53518 1475.8082,1630.60354 1475.86679,1630.66214 L1475.86679,1630.66214 L1478.5035,1633.29885 C1478.5621,1633.35744 1478.63045,1633.38674 1478.70858,1633.38674 Z M1475.13437,1643.875 C1475.52499,1643.875 1475.85702,1643.73828 1476.13046,1643.46484 C1476.4039,1643.1914 1476.54062,1642.85937 1476.54062,1642.46875 L1476.54062,1642.46875 L1476.54062,1637.83985 C1476.54062,1637.6836 1476.46737,1637.57618 1476.32089,1637.51759 C1476.17441,1637.459 1476.05234,1637.48829 1475.95468,1637.60548 L1474.78281,1638.77735 C1474.70468,1638.83595 1474.66562,1638.91407 1474.66562,1639.01173 L1474.66562,1639.01173 L1474.66562,1642 L1465.29064,1642 L1465.29064,1632.62502 L1472.02891,1632.62502 C1472.12656,1632.62502 1472.20469,1632.59573 1472.26328,1632.53713 L1472.26328,1632.53713 L1473.43515,1631.33596 C1473.55234,1631.23831 1473.58164,1631.11624 1473.52304,1630.96975 C1473.46445,1630.82327 1473.35703,1630.75003 1473.20078,1630.75003 L1473.20078,1630.75003 L1464.82189,1630.75003 C1464.43127,1630.75003 1464.09924,1630.88675 1463.8258,1631.16018 C1463.55237,1631.43362 1463.41565,1631.76565 1463.41565,1632.15627 L1463.41565,1632.15627 L1463.41565,1642.46875 C1463.41565,1642.85937 1463.55237,1643.1914 1463.8258,1643.46484 C1464.09924,1643.73828 1464.43127,1643.875 1464.82189,1643.875 L1464.82189,1643.875 L1475.13437,1643.875 Z M1468.63458,1641.06543 L1468.74767,1641.0625 L1471.44297,1640.76953 L1477.85897,1634.35353 C1477.91757,1634.29494 1477.94686,1634.22658 1477.94686,1634.14846 C1477.94686,1634.07033 1477.91757,1634.00197 1477.85897,1633.94338 L1477.85897,1633.94338 L1475.22226,1631.30667 C1475.16367,1631.24807 1475.09531,1631.21878 1475.01718,1631.21878 C1474.93906,1631.21878 1474.8707,1631.24807 1474.8121,1631.30667 L1474.8121,1631.30667 L1468.3961,1637.72267 L1468.10314,1640.41797 C1468.0836,1640.61328 1468.13732,1640.77442 1468.26427,1640.90137 C1468.39122,1641.02832 1468.55235,1641.08203 1468.74767,1641.0625 L1468.63458,1641.06543 Z" id=""></path>
        </g>
    </g>
</svg>

<svg width="18" height="16" viewBox="0 0 18 16" version="1.1" xmlns="http://www.w3.org/2000/svg"><g id="Mobile" stroke="none" stroke-width="1" fill="none" fill-rule="evenodd"><g id="Mobile-Products" transform="translate(-1463 -1628)" fill="#53C999" fill-rule="nonzero"><path d="M1478.709 1633.387c.078 0 .146-.03.205-.088l1.054-1.055c.215-.215.323-.478.323-.79 0-.313-.108-.587-.323-.821l-1.435-1.436a1.176 1.176 0 00-.82-.322c-.313 0-.577.107-.792.322l-1.054 1.055a.281.281 0 000 .41l2.637 2.637a.281.281 0 00.205.088zm-3.575 10.488c.391 0 .723-.137.996-.41.274-.274.41-.606.41-.996v-4.63a.321.321 0 00-.22-.321c-.146-.059-.268-.03-.365.087l-1.172 1.172a.278.278 0 00-.117.235V1642h-9.375v-9.375h6.738c.098 0 .176-.03.234-.088l1.172-1.201c.117-.098.147-.22.088-.366a.321.321 0 00-.322-.22h-8.38c-.39 0-.722.137-.995.41-.274.274-.41.606-.41.996v10.313c0 .39.136.722.41.996.273.273.605.41.996.41h10.312zm-6.5-2.81l.114-.003 2.695-.292 6.416-6.416a.281.281 0 000-.41l-2.637-2.637a.281.281 0 00-.41 0l-6.416 6.416-.293 2.695a.569.569 0 00.645.645l-.113.002z" id=""/></g></g></svg>
